X:2006
T:Garrett Barry's
M:6/8
K:Dmix
|:DEF G3|AGE c2A|dcA d2e|fed cAG|
|~F3 GFG|AGA cde|dcA GEA|1~D3 D2A:|2~D3 D2A||
|:dcA d2e|fed ege|dcA c2d|egd ecA|
|dcA d2e|fed ege|dcA GEA|1~D3 D2A:|2~D3 D2 z||
